public/images/home/node-js.svg

<svg width="103" height="64" viewBox="0 0 103 64" fill="none" xmlns="http://www.w3.org/2000/svg">
<path d="M50.9088 63.5498C50.5689 63.5498 50.2313 63.4606 49.9333 63.2889L46.8279 61.4499C46.3641 61.1905 46.5904 61.0987 46.7434 61.0458C47.3618 60.8292 47.4873 60.7803 48.1474 60.4054C48.2168 60.3658 48.3076 60.3797 48.3786 60.4217L50.7643 61.8377C50.8504 61.8843 50.9726 61.8843 51.0525 61.8377L60.3544 56.467C60.4405 56.4181 60.4964 56.318 60.4964 56.2155V45.4788C60.4964 45.3716 60.4405 45.2762 60.3525 45.2226L51.0544 39.8566C50.9682 39.8053 50.8541 39.8053 50.768 39.8566L41.4717 45.2226C41.3816 45.2738 41.3243 45.374 41.3243 45.4765V56.2132C41.3243 56.3156 41.3802 56.4135 41.4687 56.4624L44.0159 57.9343C45.399 58.626 46.2442 57.8109 46.2442 56.991V46.3941C46.2442 46.2427 46.3629 46.1262 46.5143 46.1262H47.6924C47.8391 46.1262 47.9602 46.2427 47.9602 46.3941V56.9957C47.9602 58.8403 46.9543 59.9 45.2057 59.9C44.6679 59.9 44.2441 59.9 43.0613 59.3177L40.6212 57.911C40.0181 57.5617 39.6456 56.9095 39.6456 56.2132V45.4765C39.6456 44.7778 40.0181 44.1256 40.6212 43.7809L49.9323 38.4079C50.5214 38.0749 51.3037 38.0749 51.8882 38.4079L61.1877 43.7833C61.7884 44.1303 62.1633 44.7801 62.1633 45.4788V56.2155C62.1633 56.9119 61.7884 57.5617 61.1877 57.911L51.8882 63.284C51.5901 63.4564 51.2525 63.5449 50.9079 63.5449" fill="#689F63"/>
<path d="M53.7832 56.1519C49.7132 56.1519 48.8599 54.2831 48.8599 52.7157C48.8599 52.5666 48.98 52.4479 49.1293 52.4479H50.3307C50.4634 52.4479 50.5752 52.5445 50.5961 52.6756C50.7777 53.9002 51.3179 54.5179 53.779 54.5179C55.7395 54.5179 56.5731 54.0749 56.5731 53.035C56.5731 52.4365 56.3356 51.9916 53.2901 51.6935C50.7428 51.442 49.1688 50.8807 49.1688 48.8428C49.1688 46.9656 50.7521 45.8477 53.4041 45.8477C56.3821 45.8477 57.8583 46.8818 58.0446 49.1037C58.0516 49.1805 58.0236 49.255 57.9724 49.3109C57.9212 49.3645 57.849 49.3971 57.7745 49.3971H56.5661C56.4403 49.3971 56.3309 49.3086 56.3053 49.1875C56.0142 47.8996 55.3111 47.4873 53.3995 47.4873C51.2597 47.4873 51.0106 48.2326 51.0106 48.7916C51.0106 49.4693 51.304 49.6673 54.1911 50.0492C57.0504 50.4289 58.4078 50.9645 58.4078 52.9744C58.4078 55.0007 56.7174 56.1628 53.7697 56.1628L53.7832 56.1519ZM65.0995 44.7764H65.4115C65.6677 44.7764 65.7166 44.5971 65.7166 44.4922C65.7166 44.2174 65.528 44.2174 65.4232 44.2174H65.1019L65.0995 44.7764ZM64.72 43.896H65.4115C65.649 43.896 66.1147 43.896 66.1147 44.427C66.1147 44.7973 65.8772 44.8742 65.7352 44.9208C66.0123 44.9394 66.0309 45.1211 66.0681 45.3773C66.0868 45.538 66.117 45.8151 66.1729 45.9083H65.7468C65.7352 45.8151 65.67 45.3027 65.67 45.2748C65.6421 45.1607 65.6025 45.1048 65.4604 45.1048H65.1089V45.9106H64.72V43.896ZM63.8888 44.8975C63.8888 45.7313 64.5617 46.4067 65.3883 46.4067C66.2218 46.4067 66.8947 45.7173 66.8947 44.8975C66.8947 44.0614 66.2125 43.3976 65.3859 43.3976C64.571 43.3976 63.8865 44.0521 63.8865 44.8952L63.8888 44.8975ZM67.1834 44.9022C67.1834 45.8896 66.3755 46.6955 65.3906 46.6955C64.4127 46.6955 63.5978 45.899 63.5978 44.9022C63.5978 43.8867 64.4313 43.1088 65.3906 43.1088C66.3569 43.1088 67.1811 43.889 67.1811 44.9022" fill="#689F63"/>
<path fill-rule="evenodd" clip-rule="evenodd" d="M91.8628 24.9508C91.9326 24.9096 92.0202 24.9096 92.091 24.9508L93.984 26.0431C94.0547 26.0841 94.098 26.1596 94.098 26.2411V28.428C94.098 28.5096 94.0547 28.585 93.984 28.626L92.091 29.7183C92.0202 29.7595 91.9326 29.7595 91.8628 29.7183L89.9709 28.626C89.8988 28.585 89.8545 28.5096 89.8545 28.428V26.2411C89.8545 26.1596 89.8964 26.0841 89.9686 26.0431L91.8628 24.9508Z" fill="#689F63"/>
<path fill-rule="evenodd" clip-rule="evenodd" d="M22.1047 21.5395C22.1047 21.111 21.8788 20.7174 21.5091 20.5043L11.647 14.8285C11.4805 14.7307 11.294 14.6794 11.1049 14.6724H11.003C10.8139 14.6794 10.6274 14.7307 10.4581 14.8285L0.596529 20.5043C0.229112 20.7185 0 21.1121 0 21.5407L0.0216539 36.8283C0.0216539 37.0402 0.131087 37.2382 0.317357 37.343C0.498971 37.4548 0.727151 37.4548 0.908764 37.343L6.77161 33.9846C7.14182 33.7642 7.36767 33.3748 7.36767 32.9505V25.8086C7.36767 25.3824 7.59353 24.9888 7.96257 24.7768L10.4586 23.3389C10.6439 23.2318 10.8474 23.1787 11.0547 23.1787C11.2586 23.1787 11.4668 23.2313 11.647 23.3387L14.1418 24.7761C14.5111 24.9881 14.7379 25.3817 14.7379 25.8079V32.9493C14.7379 33.3732 14.9668 33.7645 15.3351 33.9834L21.1943 37.3395C21.3782 37.4489 21.6071 37.4489 21.7903 37.3395C21.971 37.2347 22.0856 37.0367 22.0856 36.8248L22.1047 21.5395ZM68.6414 29.4991C68.6414 29.6056 68.5848 29.7041 68.4924 29.7567L65.1051 31.7098C65.0131 31.7627 64.8995 31.7627 64.8077 31.7098L61.4199 29.7567C61.3268 29.7038 61.2709 29.6053 61.2709 29.4991V25.5873C61.2709 25.4807 61.3268 25.3824 61.4176 25.3288L64.8031 23.3724C64.8962 23.3189 65.0103 23.3189 65.1034 23.3724L68.4912 25.3288C68.5843 25.3824 68.6402 25.4807 68.6402 25.5873L68.6414 29.4991ZM69.5564 0.525849C69.3716 0.422907 69.1467 0.425702 68.9641 0.532137C68.7825 0.639271 68.6703 0.834909 68.6703 1.04685V16.1854C68.6703 16.3344 68.5911 16.4718 68.4621 16.5464C68.334 16.6209 68.1746 16.6209 68.0453 16.5464L65.5749 15.1231C65.207 14.9102 64.7539 14.9102 64.3847 15.1231L54.5193 20.8182C54.1508 21.0302 53.9233 21.4238 53.9233 21.8476V33.2411C53.9233 33.6673 54.1508 34.0586 54.5193 34.2729L64.3847 39.972C64.753 40.1839 65.2066 40.1839 65.5761 39.972L75.4414 34.2705C75.8093 34.0563 76.0375 33.665 76.0375 33.2388V4.84359C76.0375 4.41133 75.8023 4.01377 75.4251 3.80252L69.5564 0.525849ZM102.408 25.4844C102.775 25.2715 103 24.8784 103 24.4545V21.6932C103 21.2684 102.774 20.8765 102.407 20.6627L92.6048 14.9706C92.2346 14.7563 91.7805 14.7563 91.4103 14.9706L81.5473 20.665C81.1771 20.8792 80.9513 21.2705 80.9513 21.6967V33.0856C80.9513 33.5141 81.1818 33.91 81.552 34.122L91.3521 39.7092C91.713 39.9165 92.1554 39.9188 92.521 39.7162L98.449 36.4207C98.6353 36.3159 98.754 36.1179 98.754 35.9037C98.754 35.6894 98.6399 35.4891 98.4537 35.3843L88.5301 29.6875C88.3439 29.5827 88.2298 29.3848 88.2298 29.1728V25.6001C88.2298 25.3868 88.3415 25.1902 88.5278 25.084L91.6152 23.3023C91.7992 23.1952 92.025 23.1952 92.209 23.3023L95.2987 25.084C95.4827 25.1888 95.5967 25.3868 95.5967 25.5987V28.4075C95.5967 28.6195 95.7108 28.8174 95.8948 28.9246C96.0787 29.0294 96.3069 29.0294 96.4908 28.9222L102.408 25.4844Z" fill="#333333"/>
<path d="M49.0242 33.2388C49.0242 33.2388 48.7961 34.0563 48.4282 34.2705L38.5629 39.972C38.1934 40.1839 37.7398 40.1839 37.3714 39.972L27.5061 34.2729C27.1375 34.0586 26.91 33.6673 26.91 33.2411V21.8476C26.91 21.4238 27.1375 21.0302 27.5061 20.8182L37.3714 15.1231C37.7407 14.9102 38.1938 14.9102 38.5617 15.1231L48.1744 20.7408C48.7962 21.1041 49.1746 21.7737 49.1652 22.4938L49.0242 33.2388Z" fill="#333333"/>
</svg>

<svg xmlns="http://www.w3.org/2000/svg" width="103" height="64" fill="none" xmlns:v="https://vecta.io/nano"><g fill="#689f63"><path d="M50.909 63.55a1.95 1.95 0 0 1-.975-.261l-3.105-1.839c-.464-.259-.237-.351-.084-.404a6.27 6.27 0 0 0 1.404-.64c.069-.04.16-.026.231.016l2.386 1.416c.086.047.208.047.288 0l9.302-5.371c.086-.049.142-.149.142-.252V45.479a.3.3 0 0 0-.144-.256l-9.298-5.366c-.086-.051-.2-.051-.286 0l-9.296 5.366c-.09.051-.147.151-.147.254v10.737c0 .102.056.2.144.249l2.547 1.472c1.383.692 2.228-.123 2.228-.943V46.394c0-.151.119-.268.27-.268h1.178c.147 0 .268.117.268.268v10.602c0 1.845-1.006 2.904-2.754 2.904-.538 0-.962 0-2.144-.582l-2.44-1.407c-.603-.349-.976-1.001-.976-1.698V45.477c0-.699.372-1.351.976-1.696l9.311-5.373a2.04 2.04 0 0 1 1.956 0l9.3 5.375c.601.347.976.997.976 1.696v10.737a1.97 1.97 0 0 1-.976 1.696l-9.3 5.373a1.96 1.96 0 0 1-.98.261m2.872-7.394c-4.07 0-4.923-1.869-4.923-3.436 0-.149.12-.268.269-.268h1.201a.27.27 0 0 1 .265.228c.182 1.225.722 1.842 3.183 1.842 1.96 0 2.794-.443 2.794-1.483 0-.598-.237-1.043-3.283-1.341-2.547-.252-4.121-.813-4.121-2.851 0-1.877 1.583-2.995 4.235-2.995 2.978 0 4.454 1.034 4.641 3.256.007.077-.021.151-.072.207s-.123.086-.198.086h-1.208c-.126 0-.235-.089-.261-.21-.291-1.288-.994-1.7-2.906-1.7-2.14 0-2.389.745-2.389 1.304 0 .678.293.876 3.181 1.258 2.859.38 4.217.915 4.217 2.925 0 2.026-1.69 3.188-4.638 3.188l.014-.011zM65.1 44.776h.312c.256 0 .305-.179.305-.284 0-.275-.189-.275-.293-.275h-.321l-.002.559zm-.38-.88h.692c.237 0 .703 0 .703.531 0 .37-.237.447-.379.494.277.019.296.2.333.456.019.161.049.438.105.531h-.426l-.077-.633c-.028-.114-.067-.17-.21-.17h-.352v.806h-.389v-2.015zm-.831 1.002c0 .834.673 1.509 1.499 1.509.834 0 1.506-.689 1.506-1.509 0-.836-.682-1.5-1.509-1.5-.815 0-1.499.655-1.499 1.498l.002.002zm3.295.005a1.8 1.8 0 0 1-1.793 1.793 1.8 1.8 0 0 1-1.793-1.793c0-1.016.833-1.793 1.793-1.793a1.79 1.79 0 0 1 1.79 1.793"/><path d="M91.863 24.951c.07-.041.157-.041.228 0l1.893 1.092c.071.041.114.117.114.198v2.187c0 .082-.043.157-.114.198l-1.893 1.092c-.071.041-.158.041-.228 0l-1.892-1.092c-.072-.041-.116-.116-.116-.198v-2.187c0-.081.042-.157.114-.198l1.894-1.092z" fill-rule="evenodd"/></g><g fill="#333"><path fill-rule="evenodd" d="M22.105 21.54a1.19 1.19 0 0 0-.596-1.035l-9.862-5.676a1.15 1.15 0 0 0-.542-.156h-.102a1.17 1.17 0 0 0-.545.156L.597 20.504A1.2 1.2 0 0 0 0 21.541l.022 15.288c0 .212.109.41.296.515.182.112.41.112.591 0l5.863-3.358c.37-.22.596-.61.596-1.034v-7.142a1.19 1.19 0 0 1 .595-1.032l2.496-1.438c.185-.107.389-.16.596-.16s.412.053.592.16l2.495 1.437a1.19 1.19 0 0 1 .596 1.032v7.141c0 .424.229.815.597 1.034l5.859 3.356a.58.58 0 0 0 .596 0 .6.6 0 0 0 .295-.515l.019-15.285zm46.537 7.96c0 .107-.057.205-.149.258l-3.387 1.953a.3.3 0 0 1-.297 0l-3.388-1.953c-.093-.053-.149-.151-.149-.258v-3.912a.3.3 0 0 1 .147-.258l3.386-1.956a.3.3 0 0 1 .3 0l3.388 1.956c.093.054.149.152.149.258l.001 3.912zM69.556.526a.6.6 0 0 0-.592.006.6.6 0 0 0-.294.515v15.139c0 .149-.079.286-.208.361s-.288.075-.417 0l-2.47-1.423a1.19 1.19 0 0 0-1.19 0l-9.865 5.695a1.19 1.19 0 0 0-.596 1.029v11.394c0 .426.227.817.596 1.032l9.865 5.699c.368.212.822.212 1.191 0l9.865-5.702c.368-.214.596-.605.596-1.032V4.844c0-.432-.235-.83-.612-1.041L69.556.526zm32.852 24.959a1.19 1.19 0 0 0 .592-1.03v-2.761c0-.425-.226-.817-.593-1.03l-9.802-5.692a1.19 1.19 0 0 0-1.194 0l-9.863 5.694a1.19 1.19 0 0 0-.596 1.032v11.389c0 .428.23.824.601 1.036l9.8 5.587a1.19 1.19 0 0 0 1.169.007l5.928-3.296c.186-.105.305-.303.305-.517s-.114-.415-.3-.519l-9.924-5.697a.59.59 0 0 1-.3-.515V25.6a.59.59 0 0 1 .298-.516l3.087-1.782a.59.59 0 0 1 .594 0l3.09 1.782c.184.105.298.303.298.515v2.809a.6.6 0 0 0 .894.515l5.917-3.438z"/><path d="M49.024 33.239s-.228.818-.596 1.032l-9.865 5.702c-.37.212-.823.212-1.191 0l-9.865-5.699c-.369-.214-.596-.606-.596-1.032V21.848a1.19 1.19 0 0 1 .596-1.029l9.865-5.695a1.19 1.19 0 0 1 1.19 0l9.613 5.618a2 2 0 0 1 .991 1.753l-.141 10.745z"/></g></svg>
